; generated by PrusaSlicer 2.4.2 

; 

; external perimeters extrusion width = 0.45mm
; perimeters extrusion width = 0.45mm
; infill extrusion width = 0.45mm
; solid infill extrusion width = 0.45mm
; top infill extrusion width = 0.40mm
; support material extrusion width = 0.40mm
; first layer extrusion width = 0.70mm

M201 X9000 Y9000 Z500 E10000 ; sets maximum accelerations, mm/sec^2
M203 X65 Y65 Z12 E120 ; sets maximum feedrates, mm / sec
M204 P1500 R1500 T1500 ; sets acceleration (P, T) and retract acceleration (R), mm/sec^2
M205 X10.00 Y10.00 Z0.20 E2.50 ; sets the jerk limits, mm/sec
M205 S0 T0 ; sets the minimum extruding and travel feed rate, mm/sec
M107 ; disable fan
M190 S60 ; set bed temperature and wait for it to be reached
M104 S200 ; set temperature
;TYPE:Custom
G28 ; home all axes
G1 Z5 F5000 ; lift nozzle
M109 S200 ; set temperature and wait for it to be reached
G21 ; set units to millimeters
G90 ; use absolute coordinates
M82 ; use absolute distances for extrusion
G92 E0 ; reset extrusion distance
; Filament gcode
M107 ; disable fan
;LAYER_CHANGE
;Z:0.35
;HEIGHT:0.35
G1 Z.35 F6000 ; move to next layer (0)
G1 E-2 F4800 ; retract
G92 E0 ; reset extrusion distance
G1 X62.5 Y70.671 F6000 ; move to first perimeter point
G1 E2 F4800 ;  ; unretract
;TYPE:Perimeter
;WIDTH:0.7
G1 F1020
G1 X60.639 Y63.977 E2.64441 ; perimeter
G1 X60.477 Y63.512 E2.69008 ; perimeter
G1 X60.276 Y63.091 E2.73335 ; perimeter
G1 X59.873 Y62.471 E2.80195 ; perimeter
G1 X59.336 Y61.894 E2.87507 ; perimeter
G1 X58.726 Y61.434 E2.94593 ; perimeter
G1 X58.164 Y61.131 E3.00514 ; perimeter
G1 X55.607 Y60.217 E3.25699 ; perimeter
G1 X69.393 Y60.217 E4.53561 ; perimeter
G1 X66.813 Y61.139 E4.78973 ; perimeter
G1 X66.13 Y61.526 E4.86252 ; perimeter
G1 X65.552 Y62.002 E4.93199 ; perimeter
G1 X65.116 Y62.488 E4.99258 ; perimeter
G1 X64.724 Y63.091 E5.05925 ; perimeter
G1 X64.523 Y63.512 E5.10253 ; perimeter
G1 X64.361 Y63.977 E5.14819 ; perimeter
G1 X62.516 Y70.614 E5.78704 ; perimeter
G1 E3.78704 F4800 ; retract
G92 E0 ; reset extrusion distance
G1 X62.5 Y73.005 F6000 ; move to first perimeter point
G1 E2 F4800 ;  ; unretract
G1 F1020
G1 X60.043 Y64.164 E2.85104 ; perimeter
G1 X59.898 Y63.751 E2.89166 ; perimeter
G1 X59.73 Y63.397 E2.92799 ; perimeter
G1 X59.379 Y62.857 E2.98774 ; perimeter
G1 X58.916 Y62.36 E3.05074 ; perimeter
G1 X58.388 Y61.961 E3.11212 ; perimeter
G1 X57.909 Y61.703 E3.16252 ; perimeter
G1 X52.05 Y59.609 E3.73964 ; perimeter
G1 X52.05 Y59.592 E3.74124 ; perimeter
G1 X72.95 Y59.592 E5.67972 ; perimeter
G1 X72.95 Y59.609 E5.68132 ; perimeter
G1 X67.074 Y61.709 E6.26006 ; perimeter
G1 X66.486 Y62.043 E6.32283 ; perimeter
G1 X65.985 Y62.455 E6.38291 ; perimeter
G1 X65.613 Y62.869 E6.4346 ; perimeter
G1 X65.27 Y63.397 E6.49296 ; perimeter
G1 X65.102 Y63.751 E6.52929 ; perimeter
G1 X64.957 Y64.164 E6.56991 ; perimeter
G1 X62.516 Y72.947 E7.41539 ; perimeter
G1 E5.41539 F4800 ; retract
G92 E0 ; reset extrusion distance
G1 X62.5 Y75.513 F6000 ; move to first perimeter point
G1 E2 F4800 ;  ; unretract
G1 F1020
G1 X63.561 Y76.045 E2.11004 ; perimeter
G1 X63.937 Y76.208 E2.14805 ; perimeter
G1 X61.063 Y76.208 E2.41455 ; perimeter
G1 X61.439 Y76.045 E2.45257 ; perimeter
G1 X62.446 Y75.54 E2.55704 ; perimeter
G1 X62.628 Y74.878 F6000 ; move to first perimeter point
G1 F1020
G1 X63.825 Y75.479 E2.68124 ; perimeter
G1 X64.597 Y75.813 E2.75929 ; perimeter
G1 X64.927 Y75.927 E2.79169 ; perimeter
G1 X64.531 Y76.833 E2.8834 ; perimeter
G1 X60.469 Y76.833 E3.26006 ; perimeter
G1 X60.073 Y75.927 E3.35176 ; perimeter
G1 X60.403 Y75.813 E3.38417 ; perimeter
G1 X61.175 Y75.479 E3.46222 ; perimeter
G1 X62.372 Y74.878 E3.58641 ; perimeter
G1 X59.446 Y64.351 E4.5998 ; perimeter
G1 X59.32 Y63.989 E4.63537 ; perimeter
G1 X59.183 Y63.703 E4.66476 ; perimeter
G1 X58.884 Y63.243 E4.71567 ; perimeter
G1 X58.496 Y62.826 E4.76855 ; perimeter
G1 X58.049 Y62.489 E4.82044 ; perimeter
G1 X57.654 Y62.276 E4.86203 ; perimeter
G1 X51.425 Y60.05 E5.4756 ; perimeter
G1 X51.425 Y58.967 E5.57599 ; perimeter
G1 X73.575 Y58.967 E7.63038 ; perimeter
G1 X73.575 Y60.05 E7.73077 ; perimeter
G1 X67.335 Y62.279 E8.34533 ; perimeter
G1 X66.841 Y62.56 E8.39807 ; perimeter
G1 X66.419 Y62.907 E8.44876 ; perimeter
G1 X66.111 Y63.251 E8.49155 ; perimeter
G1 X65.817 Y63.703 E8.5416 ; perimeter
G1 X65.68 Y63.989 E8.571 ; perimeter
G1 X65.554 Y64.351 E8.60656 ; perimeter
G1 X62.644 Y74.821 E9.61439 ; perimeter
G1 E7.61439 F4800 ; retract
G92 E0 ; reset extrusion distance
G1 X62.85 Y74.78 F6000 ; move to first perimeter point
G1 X59.236 Y64.305 ; move to first perimeter point
G1 X59.192 Y64.178 ; move to first perimeter point
G1 X59.142 Y64.053 ; move to first perimeter point
G1 X59.087 Y63.931 ; move to first perimeter point
G1 X59.026 Y63.811 ; move to first perimeter point
G1 X58.961 Y63.694 ; move to first perimeter point
G1 X58.89 Y63.579 ; move to first perimeter point
G1 X58.814 Y63.468 ; move to first perimeter point
G1 X58.734 Y63.36 ; move to first perimeter point
G1 X58.649 Y63.256 ; move to first perimeter point
G1 X58.559 Y63.156 ; move to first perimeter point
G1 X58.466 Y63.06 ; move to first perimeter point
G1 X58.368 Y62.968 ; move to first perimeter point
G1 X58.266 Y62.88 ; move to first perimeter point
G1 X58.161 Y62.796 ; move to first perimeter point
G1 X58.052 Y62.718 ; move to first perimeter point
G1 X57.939 Y62.644 ; move to first perimeter point
G1 X51.101 Y58.38 ; move to first perimeter point
G1 X51.173 Y54.892 ; move to first perimeter point
G1 X51.199 Y54.688 ; move to first perimeter point
G1 X51.425 Y54.717 ; move to first perimeter point
G1 E2 F4800 ;  ; unretract
G1 F1020
G1 X51.425 Y53.967 E2.06958 ; perimeter
G1 X73.575 Y53.967 E4.12397 ; perimeter
G1 X73.575 Y54.717 E4.19356 ; perimeter
G1 X51.485 Y54.717 E6.24238 ; perimeter
G1 E4.24238 F4800 ; retract
G92 E0 ; reset extrusion distance
G1 X52.05 Y49.093 F6000 ; move to first perimeter point
G1 E2 F4800 ;  ; unretract
G1 F1020
G1 X52.057 Y48.935 E2.01466 ; perimeter
G1 X52.085 Y48.851 E2.02286 ; perimeter
G1 X52.132 Y48.812 E2.0285 ; perimeter
G1 X52.211 Y48.794 E2.03601 ; perimeter
G1 X72.716 Y48.792 E3.9378 ; perimeter
G1 X72.847 Y48.807 E3.95005 ; perimeter
G1 X72.897 Y48.836 E3.95543 ; perimeter
G1 X72.937 Y48.899 E3.96235 ; perimeter
G1 X72.95 Y48.996 E3.97143 ; perimeter
G1 X72.95 Y49.093 E3.98038 ; perimeter
G1 X52.11 Y49.093 E5.91329 ; perimeter
G1 X51.425 Y49.717 F6000 ; move to first perimeter point
G1 F1020
G1 X51.425 Y48.986 E5.9811 ; perimeter
G1 X51.439 Y48.819 E5.99669 ; perimeter
G1 X51.492 Y48.637 E6.01424 ; perimeter
G1 X51.608 Y48.445 E6.03507 ; perimeter
G1 X51.757 Y48.309 E6.05372 ; perimeter
G1 X51.926 Y48.22 E6.07144 ; perimeter
G1 X52.177 Y48.169 E6.09521 ; perimeter
G1 X72.75 Y48.167 E8.00336 ; perimeter
G1 X72.977 Y48.192 E8.02448 ; perimeter
G1 X73.095 Y48.23 E8.036 ; perimeter
G1 X73.321 Y48.374 E8.06085 ; perimeter
G1 X73.484 Y48.586 E8.0857 ; perimeter
G1 X73.536 Y48.71 E8.09816 ; perimeter
G1 X73.575 Y48.976 E8.12304 ; perimeter
G1 X73.575 Y49.717 E8.19184 ; perimeter
G1 X51.485 Y49.717 E10.24067 ; perimeter
G1 X51.8 Y50.342 F6000 ; move to first perimeter point
;TYPE:External perimeter
G1 F1020
G1 X73.2 Y50.342 E12.22548 ; perimeter
G1 X73.2 Y53.342 E12.50372 ; perimeter
G1 X51.8 Y53.342 E14.48853 ; perimeter
G1 X51.8 Y50.402 E14.76121 ; perimeter
G1 X51.616 Y49.987 F6000 ; move inwards before travel
G1 E12.76121 F4800 ; retract
G92 E0 ; reset extrusion distance
G1 X51.8 Y55.342 F6000 ; move to first perimeter point
G1 E2 F4800 ;  ; unretract
G1 F1020
G1 X73.2 Y55.342 E3.98481 ; perimeter
G1 X73.2 Y58.342 E4.26306 ; perimeter
G1 X51.8 Y58.342 E6.24787 ; perimeter
G1 X51.8 Y55.402 E6.52055 ; perimeter
G1 X51.616 Y54.987 F6000 ; move inwards before travel
G1 E4.52055 F4800 ; retract
G92 E0 ; reset extrusion distance
G1 X51.108 Y55.289 F6000 ; move to first perimeter point
G1 X51.644 Y60.326 ; move to first perimeter point
G1 X57.345 Y62.355 ; move to first perimeter point
G1 X57.461 Y62.4 ; move to first perimeter point
G1 X57.585 Y62.453 ; move to first perimeter point
G1 X57.706 Y62.511 ; move to first perimeter point
G1 X57.824 Y62.575 ; move to first perimeter point
G1 X57.939 Y62.644 ; move to first perimeter point
G1 X58.052 Y62.718 ; move to first perimeter point
G1 X58.161 Y62.796 ; move to first perimeter point
G1 X58.266 Y62.88 ; move to first perimeter point
G1 X58.368 Y62.968 ; move to first perimeter point
G1 X58.466 Y63.06 ; move to first perimeter point
G1 X58.559 Y63.156 ; move to first perimeter point
G1 X58.649 Y63.256 ; move to first perimeter point
G1 X58.734 Y63.36 ; move to first perimeter point
G1 X58.814 Y63.468 ; move to first perimeter point
G1 X58.89 Y63.579 ; move to first perimeter point
G1 X58.961 Y63.694 ; move to first perimeter point
G1 X59.026 Y63.811 ; move to first perimeter point
G1 X59.087 Y63.931 ; move to first perimeter point
G1 X59.142 Y64.053 ; move to first perimeter point
G1 X59.192 Y64.178 ; move to first perimeter point
G1 X59.236 Y64.305 ; move to first perimeter point
G1 X59.272 Y64.424 ; move to first perimeter point
G1 X62.15 Y74.78 ; move to first perimeter point
G1 X63.852 Y75.282 ; move to first perimeter point
G1 X63.172 Y74.941 ; move to first perimeter point
G1 X63.368 Y74.55 ; move to first perimeter point
G1 E2 F4800 ;  ; unretract
G1 F1020
G1 X64.089 Y74.912 E2.07487 ; perimeter
G1 X64.824 Y75.23 E2.14911 ; perimeter
G1 X65.777 Y75.545 E2.24221 ; perimeter
G1 X64.939 Y77.458 E2.43588 ; perimeter
G1 X60.061 Y77.458 E2.8883 ; perimeter
G1 X59.223 Y75.545 E3.08197 ; perimeter
G1 X60.176 Y75.23 E3.17507 ; perimeter
G1 X60.911 Y74.912 E3.24931 ; perimeter
G1 X61.632 Y74.55 E3.32418 ; perimeter
G1 X58.85 Y64.538 E4.28797 ; perimeter
G1 X58.741 Y64.228 E4.31849 ; perimeter
G1 X58.637 Y64.009 E4.34095 ; perimeter
G1 X58.39 Y63.629 E4.383 ; perimeter
G1 X58.076 Y63.292 E4.42577 ; perimeter
G1 X57.711 Y63.016 E4.46818 ; perimeter
G1 X57.4 Y62.848 E4.50095 ; perimeter
G1 X50.8 Y60.49 E5.15097 ; perimeter
G1 X50.8 Y48.959 E6.22042 ; perimeter
G1 X50.822 Y48.703 E6.24425 ; perimeter
G1 X50.91 Y48.404 E6.2732 ; perimeter
G1 X51.02 Y48.19 E6.29547 ; perimeter
G1 X51.255 Y47.911 E6.32932 ; perimeter
G1 X51.397 Y47.796 E6.34629 ; perimeter
G1 X51.718 Y47.629 E6.37982 ; perimeter
G1 X51.961 Y47.564 E6.40314 ; perimeter
G1 X52.143 Y47.544 E6.42012 ; perimeter
G1 X72.785 Y47.542 E8.33462 ; perimeter
G1 X73.106 Y47.578 E8.36462 ; perimeter
G1 X73.335 Y47.65 E8.38689 ; perimeter
G1 X73.551 Y47.763 E8.4095 ; perimeter
G1 X73.745 Y47.911 E8.43211 ; perimeter
G1 X73.91 Y48.091 E8.45472 ; perimeter
G1 X74.041 Y48.296 E8.47734 ; perimeter
G1 X74.134 Y48.522 E8.49995 ; perimeter
G1 X74.187 Y48.763 E8.52291 ; perimeter
G1 X74.2 Y48.955 E8.54075 ; perimeter
G1 X74.2 Y60.49 E9.61055 ; perimeter
G1 X67.597 Y62.85 E10.26093 ; perimeter
G1 X67.196 Y63.077 E10.30364 ; perimeter
G1 X66.852 Y63.36 E10.34494 ; perimeter
G1 X66.608 Y63.632 E10.37882 ; perimeter
G1 X66.363 Y64.009 E10.42057 ; perimeter
G1 X66.259 Y64.228 E10.44303 ; perimeter
G1 X66.15 Y64.538 E10.47354 ; perimeter
G1 X63.384 Y74.493 E11.43177 ; perimeter
G1 X63.212 Y74.919 F6000 ; move inwards before travel
G1 X64.401 Y76.068 ; move to first infill point
;TYPE:Gap fill
;WIDTH:0.280488
G1 F1020
G1 X64.329 Y76.294 E11.43901 ; infill
;WIDTH:0.249653
G1 X64.256 Y76.52 E11.44515 ; infill
G1 E9.44515 F4800 ; retract
G92 E0 ; reset extrusion distance
G1 X60.744 Y76.52 F6000 ; move to first infill point
G1 E2 F4800 ;  ; unretract
;WIDTH:0.249655
G1 F1020
G1 X60.671 Y76.294 E2.00615 ; infill
;WIDTH:0.28049
G1 X60.599 Y76.068 E2.01338 ; infill
G1 E.01338 F4800 ; retract
G92 E0 ; reset extrusion distance
G1 X60.41 Y75.607 F6000 ; move to first infill point
G1 X60.722 Y75.479 ; move to first infill point
G1 X61.102 Y75.305 ; move to first infill point
G1 X62.15 Y74.78 ; move to first infill point
G1 X58.645 Y60.755 ; move to first infill point
G1 E2 F4800 ;  ; unretract
;WIDTH:0.410298
G1 F1020
G1 X58.346 Y60.692 E2.01518 ; infill
;WIDTH:0.399696
G1 X58.199 Y60.666 E2.02238 ; infill
;WIDTH:0.351579
G1 X58.052 Y60.641 E2.0285 ; infill
;WIDTH:0.303462
G1 X57.905 Y60.615 E2.03356 ; infill
;WIDTH:0.255345
G1 X57.758 Y60.59 E2.03756 ; infill
;WIDTH:0.207228
G1 X57.611 Y60.564 E2.04048 ; infill
G1 E.04048 F4800 ; retract
G92 E0 ; reset extrusion distance
G1 X55.299 Y60.164 F6000 ; move to first infill point
G1 E2 F4800 ;  ; unretract
;WIDTH:0.517705
G1 F1020
G1 X55.137 Y60.136 E2.01078 ; infill
;WIDTH:0.472881
G1 X54.976 Y60.108 E2.02047 ; infill
;WIDTH:0.428057
G1 X54.814 Y60.08 E2.02907 ; infill
;WIDTH:0.383232
G1 X54.652 Y60.051 E2.03658 ; infill
;WIDTH:0.338408
G1 X54.49 Y60.023 E2.043 ; infill
;WIDTH:0.293584
G1 X54.329 Y59.995 E2.04832 ; infill
;WIDTH:0.248759
G1 X54.167 Y59.967 E2.05255 ; infill
;WIDTH:0.203935
G1 X54.005 Y59.939 E2.05569 ; infill
G1 E.05569 F4800 ; retract
G92 E0 ; reset extrusion distance
G1 X51.3 Y58.655 F6000 ; move to first infill point
G1 E2 F4800 ;  ; unretract
;WIDTH:0.450223
G1 F1020
G1 X51.3 Y55.03 E2.20182 ; infill
G1 X51.737 Y54.342 F6000 ; move to first infill point
;WIDTH:0.200445
G1 F1020
G1 X73.263 Y54.342 E2.60224 ; infill
G1 X73.7 Y53.655 F6000 ; move to first infill point
;WIDTH:0.450223
G1 F1020
G1 X73.7 Y50.03 E2.80406 ; infill
G1 E.80406 F4800 ; retract
G92 E0 ; reset extrusion distance
G1 X73.7 Y55.03 F6000 ; move to first infill point
G1 E2 F4800 ;  ; unretract
G1 F1020
G1 X73.7 Y58.655 E2.20182 ; infill
G1 E.20182 F4800 ; retract
G92 E0 ; reset extrusion distance
G1 X70.995 Y59.939 F6000 ; move to first infill point
G1 E2 F4800 ;  ; unretract
;WIDTH:0.203934
G1 F1020
G1 X70.833 Y59.967 E2.00314 ; infill
;WIDTH:0.248758
G1 X70.671 Y59.995 E2.00737 ; infill
;WIDTH:0.293583
G1 X70.51 Y60.023 E2.01269 ; infill
;WIDTH:0.338407
G1 X70.348 Y60.051 E2.01911 ; infill
;WIDTH:0.383232
G1 X70.186 Y60.08 E2.02661 ; infill
;WIDTH:0.428056
G1 X70.024 Y60.108 E2.03521 ; infill
;WIDTH:0.47288
G1 X69.863 Y60.136 E2.04491 ; infill
;WIDTH:0.517705
G1 X69.701 Y60.164 E2.05569 ; infill
G1 E.05569 F4800 ; retract
G92 E0 ; reset extrusion distance
G1 X67.389 Y60.564 F6000 ; move to first infill point
G1 E2 F4800 ;  ; unretract
;WIDTH:0.200814
G1 F1020
G1 X67.262 Y60.586 E2.00241 ; infill
;WIDTH:0.242518
G1 X67.135 Y60.608 E2.00562 ; infill
;WIDTH:0.284222
G1 X67.008 Y60.63 E2.00962 ; infill
;WIDTH:0.325926
G1 X66.88 Y60.652 E2.01443 ; infill
;WIDTH:0.36763
G1 X66.753 Y60.674 E2.02004 ; infill
;WIDTH:0.409335
G1 X66.626 Y60.697 E2.02644 ; infill
;WIDTH:0.422195
G1 X66.597 Y60.703 E2.02799 ; infill
;WIDTH:0.445885
G1 X66.372 Y60.762 E2.04075 ; infill
G1 X64.752 Y60.404 F6000 ; move to first infill point
;TYPE:Solid infill
;WIDTH:0.729329
G1 F1020
G1 X65.656 Y61.309 E2.165 ; infill
G1 X65.227 Y61.663 E2.21903 ; infill
G1 X65.16 Y61.738 E2.2288 ; infill
G1 X64.108 Y60.686 E2.37325 ; infill
G1 X63.182 Y60.686 E2.46309 ; infill
G1 X64.725 Y62.229 E2.67498 ; infill
G1 X64.361 Y62.79 E2.73992 ; infill
G1 X62.257 Y60.686 E3.02885 ; infill
G1 X61.332 Y60.686 E3.11869 ; infill
G1 X64.061 Y63.415 E3.49343 ; infill
G1 X63.836 Y64.115 E3.56484 ; infill
G1 X60.407 Y60.686 E4.03573 ; infill
G1 X59.482 Y60.686 E4.12557 ; infill
G1 X63.635 Y64.839 E4.69588 ; infill
G1 X63.433 Y65.563 E4.76884 ; infill
G1 X60.599 Y62.728 E5.15808 ; infill
G1 X60.686 Y62.862 E5.17355 ; infill
G1 X60.911 Y63.334 E5.2243 ; infill
G1 X61.087 Y63.837 E5.27608 ; infill
G1 X61.204 Y64.259 E5.31858 ; infill
G1 X63.232 Y66.287 E5.59709 ; infill
G1 X63.031 Y67.011 E5.67005 ; infill
G1 X61.56 Y65.54 E5.87202 ; infill
G1 X61.916 Y66.821 E6.00115 ; infill
G1 X62.83 Y67.735 E6.12659 ; infill
G1 X62.629 Y68.459 E6.19955 ; infill
G1 X61.868 Y67.698 E6.30396 ; infill
G1 E4.30396 F4800 ; retract
G92 E0 ; reset extrusion distance
G1 X58.814 Y63.468 F6000 ; move to first infill point
G1 X58.734 Y63.36 ; move to first infill point
G1 X58.649 Y63.256 ; move to first infill point
G1 X58.559 Y63.156 ; move to first infill point
G1 X58.466 Y63.06 ; move to first infill point
