; generated by PrusaSlicer 2.4.2 

; 

; external perimeters extrusion width = 0.45mm
; perimeters extrusion width = 0.45mm
; infill extrusion width = 0.45mm
; solid infill extrusion width = 0.45mm
; top infill extrusion width = 0.40mm
; support material extrusion width = 0.40mm
; first layer extrusion width = 0.70mm

M201 X9000 Y9000 Z500 E10000 ; sets maximum accelerations, mm/sec^2
M203 X65 Y65 Z12 E120 ; sets maximum feedrates, mm / sec
M204 P1500 R1500 T1500 ; sets acceleration (P, T) and retract acceleration (R), mm/sec^2
M205 X10.00 Y10.00 Z0.20 E2.50 ; sets the jerk limits, mm/sec
M205 S0 T0 ; sets the minimum extruding and travel feed rate, mm/sec
M107 ; disable fan
M190 S60 ; set bed temperature and wait for it to be reached
M104 S200 ; set temperature
;TYPE:Custom
G28 ; home all axes
G1 Z5 F5000 ; lift nozzle
M109 S200 ; set temperature and wait for it to be reached
G21 ; set units to millimeters
G90 ; use absolute coordinates
M82 ; use absolute distances for extrusion
G92 E0 ; reset extrusion distance
; Filament gcode
M107 ; disable fan
;LAYER_CHANGE
;Z:0.35
;HEIGHT:0.35
G1 Z.35 F6000 ; move to next layer (0)
G1 E-2 F4800 ; retract
G92 E0 ; reset extrusion distance
G1 X71.727 Y61.092 F6000 ; move to first perimeter point
G1 E2 F4800 ;  ; unretract
;TYPE:External perimeter
;WIDTH:0.7
G1 F1020
G1 X71.9 Y60.919 E2.02274 ; perimeter
G1 X72.104 Y60.779 E2.04567 ; perimeter
G1 X72.332 Y60.678 E2.06879 ; perimeter
G1 X72.633 Y60.609 E2.09741 ; perimeter
G1 X72.9 Y60.621 E2.1222 ; perimeter
G1 X73.248 Y60.717 E2.15567 ; perimeter
G1 X73.533 Y60.907 E2.18744 ; perimeter
G1 X73.652 Y61.084 E2.20721 ; perimeter
G1 X73.791 Y61.228 E2.22581 ; perimeter
G1 X73.912 Y61.419 E2.24675 ; perimeter
G1 X74.009 Y61.669 E2.27168 ; perimeter
G1 X74.051 Y61.939 E2.29697 ; perimeter
G1 X74.033 Y62.215 E2.32261 ; perimeter
G1 X73.937 Y62.519 E2.35223 ; perimeter
G1 X73.793 Y62.756 E2.37788 ; perimeter
G1 X73.652 Y62.903 E2.39683 ; perimeter
G1 X73.533 Y63.08 E2.41661 ; perimeter
G1 X73.25 Y63.268 E2.44807 ; perimeter
G1 X72.96 Y63.353 E2.47617 ; perimeter
G1 X72.768 Y63.377 E2.49408 ; perimeter
G1 X72.564 Y63.367 E2.51299 ; perimeter
G1 X72.275 Y63.288 E2.54085 ; perimeter
G1 X72.047 Y63.175 E2.56444 ; perimeter
G1 X71.812 Y62.987 E2.5923 ; perimeter
G1 X71.652 Y62.797 E2.61534 ; perimeter
G1 X71.528 Y62.582 E2.63837 ; perimeter
G1 X71.432 Y62.301 E2.66598 ; perimeter
G1 X71.399 Y62.051 E2.68935 ; perimeter
G1 X71.419 Y61.754 E2.71695 ; perimeter
G1 X71.483 Y61.514 E2.73996 ; perimeter
G1 X71.586 Y61.293 E2.76263 ; perimeter
G1 X71.692 Y61.142 E2.77975 ; perimeter
G1 X71.643 Y60.862 F6000 ; move inwards before travel
G1 E.77975 F4800 ; retract
G92 E0 ; reset extrusion distance
G1 X73.578 Y69.899 F6000 ; move to first perimeter point
G1 E2 F4800 ;  ; unretract
;TYPE:Perimeter
G1 F1020
G1 X51.422 Y69.899 E4.05492 ; perimeter
G1 X51.422 Y69.148 E4.12455 ; perimeter
G1 X73.578 Y69.148 E6.17945 ; perimeter
G1 X73.578 Y69.839 E6.24349 ; perimeter
G1 E4.24349 F4800 ; retract
G92 E0 ; reset extrusion distance
G1 X73.038 Y73.694 F6000 ; move to first perimeter point
G1 E2 F4800 ;  ; unretract
;TYPE:External perimeter
G1 F1020
G1 X73.296 Y73.774 E2.02506 ; perimeter
G1 X73.568 Y73.93 E2.05415 ; perimeter
G1 X73.832 Y74.216 E2.09028 ; perimeter
G1 X73.957 Y74.446 E2.11457 ; perimeter
G1 X74.023 Y74.659 E2.13527 ; perimeter
G1 X74.052 Y74.92 E2.15956 ; perimeter
G1 X74.032 Y75.142 E2.18026 ; perimeter
G1 X73.959 Y75.397 E2.20486 ; perimeter
G1 X73.837 Y75.624 E2.22879 ; perimeter
G1 X73.691 Y75.803 E2.25018 ; perimeter
G1 X73.488 Y75.969 E2.27454 ; perimeter
G1 X73.294 Y76.073 E2.29489 ; perimeter
G1 X73.086 Y76.142 E2.31524 ; perimeter
G1 X72.819 Y76.176 E2.34025 ; perimeter
G1 X72.504 Y76.14 E2.36966 ; perimeter
G1 X72.248 Y76.047 E2.39488 ; perimeter
G1 X72.056 Y75.93 E2.41571 ; perimeter
G1 X71.878 Y75.767 E2.43814 ; perimeter
G1 X71.736 Y75.674 E2.45391 ; perimeter
G1 X71.542 Y75.397 E2.48521 ; perimeter
G1 X71.465 Y75.152 E2.50906 ; perimeter
G1 X71.441 Y74.956 E2.52734 ; perimeter
G1 X71.452 Y74.753 E2.54625 ; perimeter
G1 X71.541 Y74.45 E2.57549 ; perimeter
G1 X71.736 Y74.173 E2.60689 ; perimeter
G1 X71.878 Y74.08 E2.62264 ; perimeter
G1 X72.056 Y73.917 E2.64506 ; perimeter
G1 X72.248 Y73.8 E2.66589 ; perimeter
G1 X72.501 Y73.708 E2.69083 ; perimeter
G1 X72.777 Y73.672 E2.71664 ; perimeter
G1 X72.978 Y73.689 E2.73538 ; perimeter
G1 X73.215 Y73.49 F6000 ; move inwards before travel
G1 E.73538 F4800 ; retract
G92 E0 ; reset extrusion distance
G1 X54.816 Y74.772 F6000 ; move to first perimeter point
G1 E2 F4800 ;  ; unretract
;TYPE:Perimeter
G1 F1020
G1 X70.2 Y74.76 E3.42681 ; perimeter
G1 X70.197 Y75.086 E3.457 ; perimeter
G1 X54.798 Y75.077 E4.88522 ; perimeter
G1 X54.813 Y74.832 E4.90803 ; perimeter
G1 X53.975 Y74.11 F6000 ; move to first perimeter point
G1 F1020
G1 X54.777 Y74.147 E4.98247 ; perimeter
G1 X70.754 Y74.135 E6.46438 ; perimeter
G1 X71.016 Y74.111 E6.48874 ; perimeter
G1 X70.971 Y74.175 E6.496 ; perimeter
G1 X70.833 Y74.645 E6.54141 ; perimeter
G1 X70.813 Y74.978 E6.57231 ; perimeter
G1 X70.852 Y75.286 E6.60109 ; perimeter
G1 X70.975 Y75.676 E6.63908 ; perimeter
G1 X71.016 Y75.736 E6.64579 ; perimeter
G1 X69.374 Y75.699 E6.79817 ; perimeter
G1 X54.634 Y75.702 E8.16527 ; perimeter
G1 X53.975 Y75.737 E8.22648 ; perimeter
G1 X54.05 Y75.614 E8.2398 ; perimeter
G1 X54.164 Y75.219 E8.27798 ; perimeter
G1 X54.189 Y74.798 E8.31708 ; perimeter
G1 X54.064 Y74.256 E8.36868 ; perimeter
G1 X54.006 Y74.162 E8.37891 ; perimeter
G1 X53.299 Y74.202 F6000 ; move to first perimeter point
;TYPE:External perimeter
G1 F1020
G1 X53.478 Y74.495 E8.41074 ; perimeter
G1 X53.56 Y74.851 E8.44458 ; perimeter
G1 X53.544 Y75.112 E8.46888 ; perimeter
G1 X53.473 Y75.36 E8.4928 ; perimeter
G1 X53.304 Y75.636 E8.52281 ; perimeter
G1 X52.805 Y76.021 E8.58126 ; perimeter
G1 X52.502 Y76.139 E8.61145 ; perimeter
G1 X52.232 Y76.175 E8.6367 ; perimeter
G1 X51.975 Y76.155 E8.66064 ; perimeter
G1 X51.753 Y76.093 E8.68197 ; perimeter
G1 X51.525 Y75.978 E8.70563 ; perimeter
G1 X51.343 Y75.836 E8.72701 ; perimeter
G1 X51.172 Y75.637 E8.75137 ; perimeter
G1 X51.063 Y75.447 E8.77172 ; perimeter
G1 X50.989 Y75.24 E8.79207 ; perimeter
G1 X50.949 Y74.978 E8.81671 ; perimeter
G1 X50.966 Y74.712 E8.84135 ; perimeter
G1 X51.023 Y74.5 E8.86178 ; perimeter
G1 X51.118 Y74.294 E8.88281 ; perimeter
G1 X51.266 Y74.091 E8.90604 ; perimeter
G1 X51.427 Y73.934 E8.92701 ; perimeter
G1 X51.659 Y73.795 E8.95204 ; perimeter
G1 X51.91 Y73.706 E8.9767 ; perimeter
G1 X52.169 Y73.672 E9.00099 ; perimeter
G1 X52.448 Y73.696 E9.02697 ; perimeter
G1 X52.743 Y73.796 E9.05583 ; perimeter
G1 X52.939 Y73.913 E9.07698 ; perimeter
G1 X53.117 Y74.077 E9.09946 ; perimeter
G1 X53.249 Y74.168 E9.11438 ; perimeter
G1 X53.638 Y74.155 F6000 ; move inwards before travel
G1 X51.992 Y73.374 ; move to first perimeter point
G1 F1020
G1 X51.822 Y72.049 E9.23821 ; perimeter
G1 X51.794 Y70.524 E9.37971 ; perimeter
G1 X73.207 Y70.524 E11.36572 ; perimeter
G1 X73.178 Y72.049 E11.50723 ; perimeter
G1 X73.008 Y73.374 E11.63106 ; perimeter
G1 X71.737 Y73.374 E11.74898 ; perimeter
G1 X71.255 Y73.462 E11.79441 ; perimeter
G1 X70.726 Y73.51 E11.84369 ; perimeter
G1 X54.784 Y73.522 E13.32228 ; perimeter
G1 X54.27 Y73.51 E13.36993 ; perimeter
G1 X53.745 Y73.462 E13.41884 ; perimeter
G1 X53.263 Y73.374 E13.46427 ; perimeter
G1 X52.052 Y73.374 E13.57662 ; perimeter
G1 X51.593 Y73.401 F6000 ; move inwards before travel
G1 E11.57662 F4800 ; retract
G92 E0 ; reset extrusion distance
G1 X51.8 Y68.524 F6000 ; move to first perimeter point
G1 E2 F4800 ;  ; unretract
G1 F1020
G1 X51.8 Y65.524 E2.27824 ; perimeter
G1 X73.2 Y65.524 E4.26306 ; perimeter
G1 X73.2 Y68.524 E4.5413 ; perimeter
G1 X51.86 Y68.524 E6.52055 ; perimeter
G1 X51.4 Y68.542 F6000 ; move inwards before travel
G1 E4.52055 F4800 ; retract
G92 E0 ; reset extrusion distance
G1 X51.752 Y63.27 F6000 ; move to first perimeter point
G1 E2 F4800 ;  ; unretract
G1 F1020
G1 X51.467 Y63.08 E2.03176 ; perimeter
G1 X51.348 Y62.903 E2.05153 ; perimeter
G1 X51.209 Y62.758 E2.07013 ; perimeter
G1 X51.088 Y62.568 E2.09108 ; perimeter
G1 X50.991 Y62.317 E2.11601 ; perimeter
G1 X50.949 Y62.048 E2.14129 ; perimeter
G1 X50.967 Y61.772 E2.16694 ; perimeter
G1 X51.063 Y61.468 E2.19656 ; perimeter
G1 X51.207 Y61.231 E2.2222 ; perimeter
G1 X51.348 Y61.084 E2.24116 ; perimeter
G1 X51.467 Y60.907 E2.26092 ; perimeter
G1 X51.75 Y60.719 E2.29239 ; perimeter
G1 X52.04 Y60.633 E2.3205 ; perimeter
G1 X52.232 Y60.61 E2.3384 ; perimeter
G1 X52.436 Y60.619 E2.35732 ; perimeter
G1 X52.725 Y60.698 E2.38517 ; perimeter
G1 X52.953 Y60.812 E2.40876 ; perimeter
G1 X53.188 Y60.999 E2.43664 ; perimeter
G1 X53.348 Y61.189 E2.45967 ; perimeter
G1 X53.472 Y61.404 E2.4827 ; perimeter
G1 X53.568 Y61.686 E2.51031 ; perimeter
G1 X53.6 Y61.933 E2.53341 ; perimeter
G1 X53.587 Y62.192 E2.55743 ; perimeter
G1 X53.518 Y62.47 E2.584 ; perimeter
G1 X53.414 Y62.694 E2.60696 ; perimeter
G1 X53.273 Y62.894 E2.62964 ; perimeter
G1 X53.1 Y63.067 E2.65237 ; perimeter
G1 X52.896 Y63.208 E2.6753 ; perimeter
G1 X52.668 Y63.309 E2.69843 ; perimeter
G1 X52.367 Y63.378 E2.72705 ; perimeter
G1 X52.1 Y63.365 E2.75183 ; perimeter
G1 X51.81 Y63.286 E2.77975 ; perimeter
G1 X51.469 Y63.463 F6000 ; move inwards before travel
G1 E.77975 F4800 ; retract
G92 E0 ; reset extrusion distance
G1 X50.865 Y63.61 F6000 ; move to first perimeter point
G1 X51.38 Y57.446 ; move to first perimeter point
G1 X51.591 Y57.394 ; move to first perimeter point
G1 X51.8 Y57.333 ; move to first perimeter point
G1 X52.006 Y57.263 ; move to first perimeter point
G1 X52.209 Y57.184 ; move to first perimeter point
G1 X52.408 Y57.097 ; move to first perimeter point
G1 X52.603 Y57.001 ; move to first perimeter point
G1 X52.794 Y56.896 ; move to first perimeter point
G1 X52.98 Y56.783 ; move to first perimeter point
G1 X53.161 Y56.662 ; move to first perimeter point
G1 X53.336 Y56.533 ; move to first perimeter point
G1 X53.506 Y56.397 ; move to first perimeter point
G1 X53.67 Y56.254 ; move to first perimeter point
G1 X53.827 Y56.103 ; move to first perimeter point
G1 X53.977 Y55.946 ; move to first perimeter point
G1 X54.121 Y55.782 ; move to first perimeter point
G1 X54.257 Y55.613 ; move to first perimeter point
G1 X54.386 Y55.437 ; move to first perimeter point
G1 X54.507 Y55.256 ; move to first perimeter point
G1 X54.619 Y55.07 ; move to first perimeter point
G1 X54.724 Y54.879 ; move to first perimeter point
G1 X54.82 Y54.684 ; move to first perimeter point
G1 X54.908 Y54.485 ; move to first perimeter point
G1 X54.987 Y54.282 ; move to first perimeter point
G1 X55.057 Y54.076 ; move to first perimeter point
G1 X55.118 Y53.867 ; move to first perimeter point
G1 X55.169 Y53.656 ; move to first perimeter point
G1 X55.212 Y53.443 ; move to first perimeter point
G1 X55.245 Y53.227 ; move to first perimeter point
G1 X55.269 Y53.011 ; move to first perimeter point
G1 X55.28 Y52.845 ; move to first perimeter point
G1 X55.273 Y52.794 ; move to first perimeter point
G1 X55.207 Y52.586 ; move to first perimeter point
G1 X55.031 Y52.108 ; move to first perimeter point
G1 X54.94 Y51.84 ; move to first perimeter point
G1 X55.963 Y51.495 ; move to first perimeter point
G1 E2 F4800 ;  ; unretract
G1 F1020
G1 X55.78 Y51.427 E2.01814 ; perimeter
G1 X55.544 Y51.267 E2.0445 ; perimeter
G1 X55.148 Y50.736 E2.10593 ; perimeter
G1 X55.042 Y50.463 E2.13308 ; perimeter
G1 X54.999 Y50.183 E2.15938 ; perimeter
G1 X55.017 Y49.904 E2.18531 ; perimeter
G1 X55.077 Y49.681 E2.20671 ; perimeter
G1 X55.175 Y49.472 E2.22811 ; perimeter
G1 X55.34 Y49.247 E2.25404 ; perimeter
G1 X55.55 Y49.062 E2.27998 ; perimeter
G1 X55.753 Y48.945 E2.30173 ; perimeter
G1 X56.015 Y48.856 E2.32739 ; perimeter
G1 X56.26 Y48.825 E2.35022 ; perimeter
G1 X56.579 Y48.854 E2.37995 ; perimeter
G1 X56.847 Y48.945 E2.40619 ; perimeter
G1 X57.049 Y49.062 E2.42783 ; perimeter
G1 X57.243 Y49.23 E2.45164 ; perimeter
G1 X57.391 Y49.324 E2.46793 ; perimeter
G1 X57.6 Y49.601 E2.5001 ; perimeter
G1 X57.704 Y49.905 E2.5299 ; perimeter
G1 X57.741 Y50.168 E2.55456 ; perimeter
G1 X57.713 Y50.432 E2.57913 ; perimeter
G1 X57.641 Y50.676 E2.60276 ; perimeter
G1 X57.525 Y50.904 E2.6265 ; perimeter
G1 X57.37 Y51.107 E2.65013 ; perimeter
G1 X57.183 Y51.278 E2.67364 ; perimeter
G1 X56.967 Y51.415 E2.69739 ; perimeter
G1 X56.726 Y51.51 E2.72138 ; perimeter
G1 X56.413 Y51.567 E2.75093 ; perimeter
G1 X56.145 Y51.545 E2.77585 ; perimeter
G1 X56.021 Y51.511 E2.78777 ; perimeter
G1 X55.821 Y51.629 F6000 ; move inwards before travel
G1 E.78777 F4800 ; retract
G92 E0 ; reset extrusion distance
G1 X70.696 Y59.473 F6000 ; move to first perimeter point
G1 E2 F4800 ;  ; unretract
;TYPE:Perimeter
G1 F1020
G1 X70.287 Y59.881 E2.05362 ; perimeter
G1 X69.957 Y60.351 E2.10682 ; perimeter
G1 X69.715 Y60.87 E2.16001 ; perimeter
G1 X69.56 Y61.447 E2.21537 ; perimeter
G1 X69.517 Y62.112 E2.27722 ; perimeter
G1 X69.598 Y62.728 E2.33484 ; perimeter
G1 X69.812 Y63.36 E2.39674 ; perimeter
G1 X69.979 Y63.649 E2.42766 ; perimeter
G1 X55.034 Y63.649 E3.81381 ; perimeter
G1 X55.294 Y63.098 E3.87028 ; perimeter
G1 X55.451 Y62.467 E3.9306 ; perimeter
G1 X55.481 Y61.857 E3.9873 ; perimeter
G1 X55.402 Y61.259 E4.04325 ; perimeter
G1 X55.188 Y60.627 E4.10515 ; perimeter
G1 X54.888 Y60.109 E4.16063 ; perimeter
G1 X54.503 Y59.651 E4.21611 ; perimeter
G1 X53.967 Y59.222 E4.27976 ; perimeter
G1 X53.396 Y58.938 E4.33896 ; perimeter
G1 X52.672 Y58.754 E4.40826 ; perimeter
G1 X52.672 Y58.547 E4.42747 ; perimeter
G1 X53.515 Y58.145 E4.51407 ; perimeter
G1 X54.214 Y57.677 E4.59207 ; perimeter
G1 X54.846 Y57.123 E4.67007 ; perimeter
G1 X55.401 Y56.49 E4.74807 ; perimeter
G1 X55.855 Y55.811 E4.82382 ; perimeter
G1 X56.136 Y55.271 E4.88033 ; perimeter
G1 X56.423 Y54.532 E4.95382 ; perimeter
G1 X56.575 Y53.967 E5.00811 ; perimeter
G1 X56.67 Y53.426 E5.05911 ; perimeter
G1 X57.242 Y53.321 E5.11308 ; perimeter
G1 X57.819 Y53.094 E5.17054 ; perimeter
G1 X58.327 Y52.773 E5.22629 ; perimeter
G1 X58.758 Y52.378 E5.2805 ; perimeter
G1 X59.118 Y51.907 E5.33552 ; perimeter
G1 X59.39 Y51.37 E5.3913 ; perimeter
G1 X59.559 Y50.799 E5.44657 ; perimeter
G1 X59.585 Y50.548 E5.46996 ; perimeter
G1 X65.415 Y50.551 E6.01062 ; perimeter
G1 X65.441 Y50.799 E6.03375 ; perimeter
G1 X65.61 Y51.37 E6.08902 ; perimeter
G1 X65.882 Y51.907 E6.14481 ; perimeter
G1 X66.242 Y52.378 E6.19983 ; perimeter
G1 X66.673 Y52.773 E6.25403 ; perimeter
G1 X67.181 Y53.094 E6.30978 ; perimeter
G1 X67.758 Y53.321 E6.36724 ; perimeter
G1 X68.33 Y53.426 E6.42122 ; perimeter
G1 X68.425 Y53.967 E6.47221 ; perimeter
G1 X68.571 Y54.509 E6.52425 ; perimeter
G1 X68.762 Y55.036 E6.57625 ; perimeter
G1 X69.01 Y55.566 E6.63051 ; perimeter
G1 X69.433 Y56.264 E6.70625 ; perimeter
G1 X69.96 Y56.92 E6.78426 ; perimeter
G1 X70.567 Y57.502 E6.86226 ; perimeter
G1 X71.245 Y57.999 E6.94026 ; perimeter
G1 X71.983 Y58.404 E7.01827 ; perimeter
G1 X72.328 Y58.538 E7.05262 ; perimeter
G1 X72.328 Y58.756 E7.07286 ; perimeter
G1 X71.738 Y58.89 E7.12897 ; perimeter
G1 X71.183 Y59.136 E7.18532 ; perimeter
G1 X70.745 Y59.439 E7.23465 ; perimeter
G1 E5.23465 F4800 ; retract
G92 E0 ; reset extrusion distance
G1 X66.032 Y49.92 F6000 ; move to first perimeter point
G1 E2 F4800 ;  ; unretract
G1 F1020
G1 X65.996 Y50.106 E2.01762 ; perimeter
G1 X66.057 Y50.676 E2.07081 ; perimeter
G1 X66.193 Y51.139 E2.11552 ; perimeter
G1 X66.413 Y51.573 E2.16063 ; perimeter
G1 X66.705 Y51.954 E2.20519 ; perimeter
G1 X67.055 Y52.274 E2.24916 ; perimeter
G1 X67.465 Y52.534 E2.29424 ; perimeter
G1 X67.93 Y52.717 E2.34055 ; perimeter
G1 X68.525 Y52.826 E2.3967 ; perimeter
G1 X68.914 Y52.794 E2.43286 ; perimeter
G1 X68.944 Y53.311 E2.48091 ; perimeter
G1 X69.036 Y53.832 E2.52994 ; perimeter
G1 X69.167 Y54.321 E2.5769 ; perimeter
G1 X69.34 Y54.796 E2.62384 ; perimeter
G1 X69.562 Y55.271 E2.6724 ; perimeter
G1 X69.946 Y55.905 E2.74119 ; perimeter
G1 X70.421 Y56.497 E2.81159 ; perimeter
G1 X70.97 Y57.022 E2.882 ; perimeter
G1 X71.582 Y57.471 E2.9524 ; perimeter
