; generated by PrusaSlicer 2.4.2 

; 

; external perimeters extrusion width = 0.45mm
; perimeters extrusion width = 0.45mm
; infill extrusion width = 0.45mm
; solid infill extrusion width = 0.45mm
; top infill extrusion width = 0.40mm
; support material extrusion width = 0.40mm
; first layer extrusion width = 0.70mm

M201 X9000 Y9000 Z500 E10000 ; sets maximum accelerations, mm/sec^2
M203 X65 Y65 Z12 E120 ; sets maximum feedrates, mm / sec
M204 P1500 R1500 T1500 ; sets acceleration (P, T) and retract acceleration (R), mm/sec^2
M205 X10.00 Y10.00 Z0.20 E2.50 ; sets the jerk limits, mm/sec
M205 S0 T0 ; sets the minimum extruding and travel feed rate, mm/sec
M107 ; disable fan
M190 S60 ; set bed temperature and wait for it to be reached
M104 S200 ; set temperature
;TYPE:Custom
G28 ; home all axes
G1 Z5 F5000 ; lift nozzle
M109 S200 ; set temperature and wait for it to be reached
G21 ; set units to millimeters
G90 ; use absolute coordinates
M82 ; use absolute distances for extrusion
G92 E0 ; reset extrusion distance
; Filament gcode
M107 ; disable fan
;LAYER_CHANGE
;Z:0.35
;HEIGHT:0.35
G1 Z.35 F6000 ; move to next layer (0)
G1 E-2 F4800 ; retract
G92 E0 ; reset extrusion distance
G1 X71.727 Y61.092 F6000 ; move to first perimeter point
G1 E2 F4800 ;  ; unretract
;TYPE:External perimeter
;WIDTH:0.7
G1 F1020
G1 X71.9 Y60.919 E2.02273 ; perimeter
G1 X72.104 Y60.779 E2.04567 ; perimeter
G1 X72.332 Y60.678 E2.06879 ; perimeter
G1 X72.633 Y60.609 E2.09741 ; perimeter
G1 X72.9 Y60.621 E2.1222 ; perimeter
G1 X73.248 Y60.717 E2.15567 ; perimeter
G1 X73.533 Y60.907 E2.18744 ; perimeter
G1 X73.652 Y61.084 E2.20721 ; perimeter
G1 X73.791 Y61.228 E2.22581 ; perimeter
G1 X73.912 Y61.419 E2.24676 ; perimeter
G1 X74.009 Y61.669 E2.27168 ; perimeter
G1 X74.051 Y61.939 E2.29697 ; perimeter
G1 X74.033 Y62.215 E2.32261 ; perimeter
G1 X73.937 Y62.519 E2.35223 ; perimeter
G1 X73.793 Y62.756 E2.37787 ; perimeter
G1 X73.652 Y62.903 E2.39683 ; perimeter
G1 X73.533 Y63.08 E2.41661 ; perimeter
G1 X73.25 Y63.268 E2.44807 ; perimeter
G1 X72.96 Y63.353 E2.47617 ; perimeter
G1 X72.768 Y63.377 E2.49408 ; perimeter
G1 X72.564 Y63.367 E2.51299 ; perimeter
G1 X72.275 Y63.288 E2.54085 ; perimeter
G1 X72.047 Y63.175 E2.56443 ; perimeter
G1 X71.812 Y62.987 E2.5923 ; perimeter
G1 X71.652 Y62.797 E2.61534 ; perimeter
G1 X71.528 Y62.582 E2.63837 ; perimeter
G1 X71.432 Y62.301 E2.66598 ; perimeter
G1 X71.399 Y62.051 E2.68935 ; perimeter
G1 X71.419 Y61.754 E2.71695 ; perimeter
G1 X71.483 Y61.514 E2.73996 ; perimeter
G1 X71.586 Y61.293 E2.76264 ; perimeter
G1 X71.692 Y61.142 E2.77975 ; perimeter
G1 X71.643 Y60.862 F6000 ; move inwards before travel
G1 E.77975 F4800 ; retract
G92 E0 ; reset extrusion distance
G1 X69.037 Y51.495 F6000 ; move to first perimeter point
G1 E2 F4800 ;  ; unretract
G1 F1020
G1 X68.855 Y51.545 E2.01749 ; perimeter
G1 X68.587 Y51.567 E2.04241 ; perimeter
G1 X68.274 Y51.51 E2.07196 ; perimeter
G1 X68.033 Y51.415 E2.09595 ; perimeter
G1 X67.817 Y51.278 E2.1197 ; perimeter
G1 X67.63 Y51.107 E2.14321 ; perimeter
G1 X67.475 Y50.904 E2.16684 ; perimeter
G1 X67.359 Y50.676 E2.19059 ; perimeter
G1 X67.287 Y50.432 E2.21421 ; perimeter
G1 X67.259 Y50.168 E2.23877 ; perimeter
G1 X67.296 Y49.905 E2.26344 ; perimeter
G1 X67.398 Y49.608 E2.29252 ; perimeter
G1 X67.566 Y49.363 E2.32015 ; perimeter
G1 X68.091 Y48.975 E2.38066 ; perimeter
G1 X68.364 Y48.868 E2.40783 ; perimeter
G1 X68.652 Y48.825 E2.43484 ; perimeter
G1 X68.927 Y48.844 E2.46039 ; perimeter
G1 X69.195 Y48.922 E2.48628 ; perimeter
G1 X69.403 Y49.031 E2.50803 ; perimeter
G1 X69.621 Y49.206 E2.53397 ; perimeter
G1 X69.796 Y49.424 E2.5599 ; perimeter
G1 X69.904 Y49.632 E2.58166 ; perimeter
G1 X69.982 Y49.9 E2.6076 ; perimeter
G1 X70.001 Y50.183 E2.63389 ; perimeter
G1 X69.958 Y50.463 E2.66018 ; perimeter
G1 X69.852 Y50.736 E2.68733 ; perimeter
G1 X69.456 Y51.267 E2.74876 ; perimeter
G1 X69.22 Y51.427 E2.77512 ; perimeter
G1 X69.093 Y51.474 E2.7877 ; perimeter
G1 X69.004 Y51.68 F6000 ; move inwards before travel
G1 E.7877 F4800 ; retract
G92 E0 ; reset extrusion distance
G1 X70.696 Y59.473 F6000 ; move to first perimeter point
G1 E2 F4800 ;  ; unretract
;TYPE:Perimeter
G1 F1020
G1 X70.287 Y59.881 E2.05362 ; perimeter
G1 X69.957 Y60.351 E2.10682 ; perimeter
G1 X69.715 Y60.87 E2.16002 ; perimeter
G1 X69.56 Y61.447 E2.21537 ; perimeter
G1 X69.517 Y62.112 E2.27722 ; perimeter
G1 X69.598 Y62.728 E2.33484 ; perimeter
G1 X69.812 Y63.36 E2.39674 ; perimeter
G1 X69.979 Y63.649 E2.42766 ; perimeter
G1 X55.034 Y63.649 E3.81381 ; perimeter
G1 X55.285 Y63.116 E3.86843 ; perimeter
G1 X55.44 Y62.54 E3.92378 ; perimeter
G1 X55.483 Y61.874 E3.98563 ; perimeter
G1 X55.402 Y61.259 E4.04325 ; perimeter
G1 X55.188 Y60.627 E4.10515 ; perimeter
G1 X54.888 Y60.109 E4.16064 ; perimeter
G1 X54.503 Y59.651 E4.21614 ; perimeter
G1 X53.967 Y59.222 E4.27976 ; perimeter
G1 X53.396 Y58.938 E4.33893 ; perimeter
G1 X52.672 Y58.754 E4.40826 ; perimeter
G1 X52.672 Y58.547 E4.42747 ; perimeter
G1 X53.515 Y58.145 E4.51407 ; perimeter
G1 X54.214 Y57.677 E4.59207 ; perimeter
G1 X54.846 Y57.123 E4.67007 ; perimeter
G1 X55.401 Y56.49 E4.74808 ; perimeter
G1 X55.855 Y55.811 E4.82382 ; perimeter
G1 X56.136 Y55.271 E4.88033 ; perimeter
G1 X56.423 Y54.532 E4.95382 ; perimeter
G1 X56.575 Y53.967 E5.00812 ; perimeter
G1 X56.67 Y53.426 E5.05911 ; perimeter
G1 X57.242 Y53.321 E5.11309 ; perimeter
G1 X57.819 Y53.094 E5.17055 ; perimeter
G1 X58.327 Y52.773 E5.2263 ; perimeter
G1 X58.758 Y52.378 E5.2805 ; perimeter
G1 X59.119 Y51.907 E5.33552 ; perimeter
G1 X59.39 Y51.37 E5.39131 ; perimeter
G1 X59.559 Y50.799 E5.44658 ; perimeter
G1 X59.585 Y50.548 E5.46996 ; perimeter
G1 X65.415 Y50.551 E6.01062 ; perimeter
G1 X65.441 Y50.799 E6.03375 ; perimeter
G1 X65.61 Y51.37 E6.08902 ; perimeter
G1 X65.881 Y51.907 E6.14481 ; perimeter
G1 X66.242 Y52.378 E6.19983 ; perimeter
G1 X66.673 Y52.773 E6.25403 ; perimeter
G1 X67.181 Y53.094 E6.30978 ; perimeter
G1 X67.758 Y53.321 E6.36725 ; perimeter
G1 X68.33 Y53.426 E6.42122 ; perimeter
G1 X68.425 Y53.967 E6.47222 ; perimeter
G1 X68.571 Y54.509 E6.52425 ; perimeter
G1 X68.762 Y55.036 E6.57626 ; perimeter
G1 X69.01 Y55.566 E6.63051 ; perimeter
G1 X69.433 Y56.264 E6.70626 ; perimeter
G1 X69.96 Y56.92 E6.78426 ; perimeter
G1 X70.567 Y57.502 E6.86226 ; perimeter
G1 X71.245 Y57.999 E6.94027 ; perimeter
G1 X71.983 Y58.404 E7.01827 ; perimeter
G1 X72.328 Y58.538 E7.05262 ; perimeter
G1 X72.328 Y58.756 E7.07286 ; perimeter
G1 X71.738 Y58.89 E7.12897 ; perimeter
G1 X71.183 Y59.136 E7.18532 ; perimeter
G1 X70.745 Y59.439 E7.23466 ; perimeter
G1 E5.23466 F4800 ; retract
G92 E0 ; reset extrusion distance
G1 X59.004 Y50.106 F6000 ; move to first perimeter point
G1 E2 F4800 ;  ; unretract
G1 F1020
G1 X58.969 Y49.923 E2.0173 ; perimeter
G1 X66.032 Y49.92 E2.67241 ; perimeter
G1 X66 Y50.149 E2.69384 ; perimeter
G1 X66.057 Y50.676 E2.74308 ; perimeter
G1 X66.193 Y51.139 E2.7878 ; perimeter
G1 X66.413 Y51.573 E2.8329 ; perimeter
G1 X66.705 Y51.954 E2.87746 ; perimeter
G1 X67.055 Y52.274 E2.92144 ; perimeter
G1 X67.465 Y52.534 E2.96652 ; perimeter
G1 X67.93 Y52.717 E3.01283 ; perimeter
G1 X68.525 Y52.826 E3.06897 ; perimeter
G1 X68.914 Y52.794 E3.10513 ; perimeter
G1 X68.944 Y53.311 E3.15318 ; perimeter
G1 X69.036 Y53.832 E3.20221 ; perimeter
G1 X69.167 Y54.321 E3.24918 ; perimeter
G1 X69.34 Y54.796 E3.29612 ; perimeter
G1 X69.562 Y55.271 E3.34468 ; perimeter
G1 X69.946 Y55.905 E3.41346 ; perimeter
G1 X70.421 Y56.497 E3.48387 ; perimeter
G1 X70.97 Y57.022 E3.55427 ; perimeter
G1 X71.582 Y57.471 E3.62468 ; perimeter
G1 X72.247 Y57.836 E3.69508 ; perimeter
G1 X72.952 Y58.11 E3.76522 ; perimeter
G1 X72.954 Y59.373 E3.88235 ; perimeter
G1 X72.521 Y59.353 E3.9226 ; perimeter
G1 X71.936 Y59.486 E3.97819 ; perimeter
G1 X71.49 Y59.684 E4.02346 ; perimeter
G1 X71.098 Y59.955 E4.0677 ; perimeter
G1 X70.767 Y60.285 E4.11103 ; perimeter
G1 X70.5 Y60.665 E4.15405 ; perimeter
G1 X70.304 Y61.085 E4.19708 ; perimeter
G1 X70.18 Y61.549 E4.24165 ; perimeter
G1 X70.144 Y62.092 E4.29208 ; perimeter
G1 X70.209 Y62.586 E4.33829 ; perimeter
G1 X70.384 Y63.101 E4.38875 ; perimeter
G1 X70.625 Y63.518 E4.43342 ; perimeter
G1 X70.935 Y63.887 E4.4781 ; perimeter
G1 X71.371 Y64.235 E4.52981 ; perimeter
G1 X71.45 Y64.274 E4.53797 ; perimeter
G1 X53.552 Y64.274 E6.19792 ; perimeter
G1 X53.902 Y64.032 E6.23741 ; perimeter
G1 X54.233 Y63.702 E6.28074 ; perimeter
G1 X54.5 Y63.322 E6.32376 ; perimeter
G1 X54.696 Y62.902 E6.36679 ; perimeter
G1 X54.82 Y62.438 E6.41135 ; perimeter
G1 X54.856 Y61.895 E6.46179 ; perimeter
G1 X54.791 Y61.401 E6.50799 ; perimeter
G1 X54.616 Y60.886 E6.55846 ; perimeter
G1 X54.375 Y60.469 E6.60313 ; perimeter
G1 X54.065 Y60.1 E6.64781 ; perimeter
G1 X53.629 Y59.752 E6.69951 ; perimeter
G1 X53.173 Y59.525 E6.74682 ; perimeter
G1 X52.631 Y59.377 E6.79887 ; perimeter
G1 X52.185 Y59.357 E6.84029 ; perimeter
G1 X52.046 Y59.374 E6.85329 ; perimeter
G1 X52.048 Y58.098 E6.97156 ; perimeter
G1 X52.521 Y57.938 E7.0179 ; perimeter
G1 X53.202 Y57.602 E7.0883 ; perimeter
G1 X53.833 Y57.18 E7.15871 ; perimeter
G1 X54.404 Y56.68 E7.22911 ; perimeter
G1 X54.904 Y56.109 E7.29952 ; perimeter
G1 X55.316 Y55.493 E7.3683 ; perimeter
G1 X55.566 Y55.013 E7.41848 ; perimeter
G1 X55.828 Y54.338 E7.48564 ; perimeter
G1 X55.964 Y53.832 E7.53423 ; perimeter
G1 X56.056 Y53.311 E7.58326 ; perimeter
G1 X56.086 Y52.794 E7.63131 ; perimeter
G1 X56.475 Y52.826 E7.66748 ; perimeter
G1 X57.07 Y52.717 E7.72362 ; perimeter
G1 X57.535 Y52.534 E7.76992 ; perimeter
G1 X57.945 Y52.274 E7.815 ; perimeter
G1 X58.295 Y51.954 E7.85898 ; perimeter
G1 X58.587 Y51.573 E7.90354 ; perimeter
G1 X58.807 Y51.139 E7.94864 ; perimeter
G1 X58.943 Y50.676 E7.99336 ; perimeter
G1 X58.998 Y50.166 E8.04099 ; perimeter
G1 X58.16 Y49.318 F6000 ; move to first perimeter point
G1 F1020
G1 X58.126 Y49.268 E8.04657 ; perimeter
G1 X58.762 Y49.298 E8.10556 ; perimeter
G1 X65.734 Y49.301 E8.75229 ; perimeter
G1 X66.874 Y49.267 E8.85805 ; perimeter
G1 X66.835 Y49.325 E8.86455 ; perimeter
G1 X66.685 Y49.759 E8.90715 ; perimeter
G1 X66.63 Y50.158 E8.94453 ; perimeter
G1 X66.672 Y50.554 E8.98143 ; perimeter
G1 X66.776 Y50.907 E9.01561 ; perimeter
G1 X66.944 Y51.239 E9.05003 ; perimeter
G1 X67.168 Y51.53 E9.08413 ; perimeter
G1 X67.436 Y51.776 E9.11787 ; perimeter
G1 X67.749 Y51.975 E9.15229 ; perimeter
G1 X68.102 Y52.113 E9.18744 ; perimeter
G1 X68.556 Y52.196 E9.23028 ; perimeter
G1 X68.965 Y52.163 E9.2683 ; perimeter
G1 X69.229 Y52.09 E9.29372 ; perimeter
G1 X69.557 Y51.953 E9.32671 ; perimeter
G1 X69.528 Y52.588 E9.38561 ; perimeter
G1 X69.566 Y53.238 E9.44608 ; perimeter
G1 X69.647 Y53.697 E9.48923 ; perimeter
G1 X69.764 Y54.133 E9.53112 ; perimeter
G1 X69.918 Y54.557 E9.573 ; perimeter
G1 X70.113 Y54.976 E9.61587 ; perimeter
G1 X70.459 Y55.546 E9.67769 ; perimeter
G1 X70.883 Y56.074 E9.7405 ; perimeter
G1 X71.372 Y56.542 E9.80331 ; perimeter
G1 X71.918 Y56.943 E9.86611 ; perimeter
G1 X72.512 Y57.268 E9.92892 ; perimeter
G1 X73.143 Y57.514 E9.99173 ; perimeter
G1 X73.576 Y57.62 E10.03309 ; perimeter
G1 X73.579 Y59.616 E10.21823 ; perimeter
G1 X73.609 Y60.207 E10.27307 ; perimeter
G1 X73.51 Y60.141 E10.28404 ; perimeter
G1 X72.998 Y60 E10.33332 ; perimeter
G1 X72.577 Y59.981 E10.37242 ; perimeter
G1 X72.134 Y60.082 E10.41452 ; perimeter
G1 X71.797 Y60.231 E10.44872 ; perimeter
G1 X71.499 Y60.437 E10.48231 ; perimeter
G1 X71.247 Y60.689 E10.51534 ; perimeter
G1 X71.043 Y60.979 E10.54819 ; perimeter
G1 X70.894 Y61.3 E10.58104 ; perimeter
G1 X70.799 Y61.652 E10.61483 ; perimeter
G1 X70.772 Y62.071 E10.65385 ; perimeter
G1 X70.821 Y62.443 E10.68864 ; perimeter
G1 X70.956 Y62.842 E10.72767 ; perimeter
G1 X71.139 Y63.158 E10.76152 ; perimeter
G1 X71.374 Y63.437 E10.79538 ; perimeter
G1 X71.709 Y63.705 E10.83517 ; perimeter
G1 X72.051 Y63.875 E10.87061 ; perimeter
G1 X72.467 Y63.988 E10.91057 ; perimeter
G1 X72.792 Y64.003 E10.94073 ; perimeter
G1 X73.086 Y63.968 E10.96827 ; perimeter
G1 X73.518 Y63.841 E11.00998 ; perimeter
G1 X73.612 Y63.778 E11.02049 ; perimeter
G1 X73.592 Y63.984 E11.03969 ; perimeter
G1 X73.577 Y64.899 E11.12452 ; perimeter
G1 X51.423 Y64.899 E13.17932 ; perimeter
G1 X51.408 Y63.984 E13.26415 ; perimeter
G1 X51.388 Y63.778 E13.28336 ; perimeter
G1 X51.49 Y63.846 E13.29471 ; perimeter
G1 X52.002 Y63.986 E13.34398 ; perimeter
G1 X52.423 Y64.006 E13.38308 ; perimeter
G1 X52.866 Y63.905 E13.42519 ; perimeter
G1 X53.203 Y63.755 E13.45939 ; perimeter
G1 X53.501 Y63.55 E13.49298 ; perimeter
G1 X53.753 Y63.298 E13.52601 ; perimeter
G1 X53.957 Y63.008 E13.55886 ; perimeter
G1 X54.106 Y62.687 E13.59171 ; perimeter
G1 X54.201 Y62.335 E13.6255 ; perimeter
G1 X54.228 Y61.916 E13.66451 ; perimeter
G1 X54.179 Y61.544 E13.6993 ; perimeter
G1 X54.044 Y61.145 E13.73834 ; perimeter
G1 X53.861 Y60.829 E13.77219 ; perimeter
G1 X53.626 Y60.55 E13.80605 ; perimeter
G1 X53.291 Y60.282 E13.84583 ; perimeter
G1 X52.949 Y60.112 E13.88128 ; perimeter
G1 X52.533 Y59.998 E13.92123 ; perimeter
G1 X52.208 Y59.984 E13.9514 ; perimeter
G1 X51.914 Y60.019 E13.97893 ; perimeter
G1 X51.482 Y60.146 E14.02064 ; perimeter
G1 X51.391 Y60.207 E14.03078 ; perimeter
G1 X51.421 Y59.616 E14.08561 ; perimeter
G1 X51.424 Y57.62 E14.27074 ; perimeter
G1 X51.64 Y57.577 E14.29119 ; perimeter
G1 X52.281 Y57.359 E14.354 ; perimeter
G1 X52.889 Y57.06 E14.4168 ; perimeter
G1 X53.452 Y56.684 E14.47961 ; perimeter
G1 X53.961 Y56.237 E14.54242 ; perimeter
G1 X54.407 Y55.728 E14.60523 ; perimeter
G1 X54.778 Y55.174 E14.66705 ; perimeter
G1 X54.996 Y54.754 E14.7109 ; perimeter
G1 X55.234 Y54.143 E14.77173 ; perimeter
G1 X55.353 Y53.696 E14.81462 ; perimeter
G1 X55.434 Y53.238 E14.85777 ; perimeter
G1 X55.472 Y52.588 E14.91823 ; perimeter
G1 X55.443 Y51.953 E14.97714 ; perimeter
G1 X55.771 Y52.09 E15.01012 ; perimeter
G1 X56.035 Y52.163 E15.03554 ; perimeter
G1 X56.444 Y52.196 E15.07357 ; perimeter
G1 X56.898 Y52.113 E15.11641 ; perimeter
G1 X57.251 Y51.975 E15.15156 ; perimeter
G1 X57.564 Y51.776 E15.18597 ; perimeter
G1 X57.832 Y51.53 E15.21972 ; perimeter
G1 X58.056 Y51.239 E15.25381 ; perimeter
G1 X58.224 Y50.907 E15.28824 ; perimeter
G1 X58.328 Y50.554 E15.32241 ; perimeter
G1 X58.373 Y50.133 E15.36172 ; perimeter
G1 X58.277 Y49.634 E15.40884 ; perimeter
G1 X58.181 Y49.374 E15.43451 ; perimeter
G1 X57.728 Y50.291 F6000 ; move to first perimeter point
;TYPE:External perimeter
G1 F1020
G1 X57.713 Y50.432 E15.44763 ; perimeter
G1 X57.641 Y50.676 E15.47125 ; perimeter
G1 X57.525 Y50.904 E15.495 ; perimeter
G1 X57.37 Y51.107 E15.51863 ; perimeter
G1 X57.183 Y51.278 E15.54214 ; perimeter
G1 X56.967 Y51.415 E15.56589 ; perimeter
G1 X56.726 Y51.51 E15.58988 ; perimeter
G1 X56.413 Y51.567 E15.61942 ; perimeter
G1 X56.145 Y51.545 E15.64435 ; perimeter
G1 X55.78 Y51.427 E15.67995 ; perimeter
G1 X55.544 Y51.267 E15.70631 ; perimeter
G1 X55.148 Y50.736 E15.76774 ; perimeter
G1 X55.042 Y50.463 E15.79489 ; perimeter
G1 X54.999 Y50.183 E15.82118 ; perimeter
G1 X55.017 Y49.904 E15.84712 ; perimeter
G1 X55.077 Y49.681 E15.86852 ; perimeter
G1 X55.175 Y49.472 E15.88991 ; perimeter
G1 X55.34 Y49.247 E15.91585 ; perimeter
G1 X55.55 Y49.062 E15.94179 ; perimeter
G1 X55.753 Y48.945 E15.96354 ; perimeter
G1 X56.018 Y48.855 E15.98942 ; perimeter
G1 X56.291 Y48.825 E16.01497 ; perimeter
G1 X56.581 Y48.855 E16.04199 ; perimeter
G1 X56.847 Y48.945 E16.068 ; perimeter
G1 X57.042 Y49.058 E16.0889 ; perimeter
G1 X57.444 Y49.375 E16.13636 ; perimeter
G1 X57.6 Y49.606 E16.16227 ; perimeter
G1 X57.673 Y49.802 E16.18171 ; perimeter
G1 X57.742 Y50.159 E16.21538 ; perimeter
G1 X57.734 Y50.231 E16.22213 ; perimeter
G1 X57.848 Y50.366 F6000 ; move inwards before travel
G1 E14.22213 F4800 ; retract
G92 E0 ; reset extrusion distance
G1 X52.725 Y60.699 F6000 ; move to first perimeter point
G1 E2 F4800 ;  ; unretract
G1 F1020
G1 X52.953 Y60.812 E2.02358 ; perimeter
G1 X53.188 Y60.999 E2.05145 ; perimeter
G1 X53.348 Y61.189 E2.07449 ; perimeter
G1 X53.472 Y61.404 E2.09752 ; perimeter
G1 X53.568 Y61.686 E2.12513 ; perimeter
G1 X53.601 Y61.936 E2.1485 ; perimeter
