; generated by PrusaSlicer 2.4.2 

; 

; external perimeters extrusion width = 0.45mm
; perimeters extrusion width = 0.45mm
; infill extrusion width = 0.45mm
; solid infill extrusion width = 0.45mm
; top infill extrusion width = 0.40mm
; support material extrusion width = 0.40mm
; first layer extrusion width = 0.70mm

M201 X9000 Y9000 Z500 E10000 ; sets maximum accelerations, mm/sec^2
M203 X65 Y65 Z12 E120 ; sets maximum feedrates, mm / sec
M204 P1500 R1500 T1500 ; sets acceleration (P, T) and retract acceleration (R), mm/sec^2
M205 X10.00 Y10.00 Z0.20 E2.50 ; sets the jerk limits, mm/sec
M205 S0 T0 ; sets the minimum extruding and travel feed rate, mm/sec
M107 ; disable fan
M190 S60 ; set bed temperature and wait for it to be reached
M104 S200 ; set temperature
;TYPE:Custom
G28 ; home all axes
G1 Z5 F5000 ; lift nozzle
M109 S200 ; set temperature and wait for it to be reached
G21 ; set units to millimeters
G90 ; use absolute coordinates
M82 ; use absolute distances for extrusion
G92 E0 ; reset extrusion distance
; Filament gcode
M107 ; disable fan
;LAYER_CHANGE
;Z:0.35
;HEIGHT:0.35
G1 Z.35 F6000 ; move to next layer (0)
G1 E-2 F4800 ; retract
G92 E0 ; reset extrusion distance
G1 X64.035 Y61.128 F6000 ; move to first perimeter point
G1 E2 F4800 ;  ; unretract
;TYPE:Perimeter
;WIDTH:0.7
G1 F1020
G1 X64.068 Y61.112 E2.00343 ; perimeter
G1 X64.137 Y61.36 E2.02732 ; perimeter
G1 X64.059 Y61.183 E2.04528 ; perimeter
G1 X62.268 Y60.463 F6000 ; move to first perimeter point
G1 F1020
G1 X62.352 Y60.509 E2.05411 ; perimeter
G1 X62.716 Y60.623 E2.08945 ; perimeter
G1 X63.083 Y60.665 E2.12375 ; perimeter
G1 X63.447 Y60.642 E2.15761 ; perimeter
G1 X63.77 Y60.562 E2.18839 ; perimeter
G1 X64.115 Y60.396 E2.22398 ; perimeter
G1 X64.472 Y60.128 E2.26535 ; perimeter
G1 X64.606 Y60.713 E2.32098 ; perimeter
G1 X66.317 Y66.882 E2.91476 ; perimeter
G1 X65.944 Y67.015 E2.95148 ; perimeter
G1 X63.457 Y61.366 E3.52398 ; perimeter
G1 X63.112 Y60.843 E3.58209 ; perimeter
G1 X62.926 Y60.828 E3.59941 ; perimeter
G1 X62.834 Y60.76 E3.60996 ; perimeter
G1 X62.469 Y60.608 E3.64664 ; perimeter
G1 X62.246 Y60.596 E3.66739 ; perimeter
G1 X62.258 Y60.523 E3.67432 ; perimeter
G1 X62.598 Y59.931 F6000 ; move to first perimeter point
;TYPE:External perimeter
G1 F1020
G1 X62.327 Y59.783 E3.70298 ; perimeter
G1 X62.13 Y59.617 E3.72683 ; perimeter
G1 X61.966 Y59.422 E3.7505 ; perimeter
G1 X61.841 Y59.198 E3.77424 ; perimeter
G1 X61.758 Y58.956 E3.79801 ; perimeter
G1 X61.723 Y58.698 E3.82218 ; perimeter
G1 X61.738 Y58.489 E3.84161 ; perimeter
G1 X61.815 Y58.184 E3.87076 ; perimeter
G1 X61.992 Y57.888 E3.90276 ; perimeter
G1 X62.168 Y57.752 E3.92335 ; perimeter
G1 X62.319 Y57.594 E3.94365 ; perimeter
G1 X62.555 Y57.437 E3.96994 ; perimeter
G1 X62.822 Y57.333 E3.99657 ; perimeter
G1 X63.144 Y57.29 E4.02667 ; perimeter
G1 X63.385 Y57.31 E4.04914 ; perimeter
G1 X63.654 Y57.389 E4.07512 ; perimeter
G1 X63.9 Y57.523 E4.10105 ; perimeter
G1 X64.076 Y57.671 E4.12245 ; perimeter
G1 X64.225 Y57.848 E4.14385 ; perimeter
G1 X64.359 Y58.093 E4.16978 ; perimeter
G1 X64.437 Y58.362 E4.19572 ; perimeter
G1 X64.457 Y58.592 E4.21712 ; perimeter
G1 X64.438 Y58.818 E4.23816 ; perimeter
G1 X64.378 Y59.04 E4.25955 ; perimeter
G1 X64.283 Y59.234 E4.27956 ; perimeter
G1 X64.216 Y59.438 E4.29949 ; perimeter
G1 X64.041 Y59.671 E4.32647 ; perimeter
G1 X63.789 Y59.859 E4.35564 ; perimeter
G1 X63.556 Y59.971 E4.37963 ; perimeter
G1 X63.352 Y60.022 E4.39916 ; perimeter
G1 X63.099 Y60.038 E4.42265 ; perimeter
G1 X62.845 Y60.009 E4.44634 ; perimeter
G1 X62.655 Y59.949 E4.46486 ; perimeter
G1 X62.35 Y60.117 F6000 ; move inwards before travel
G1 X61.218 Y59.306 ; move to first perimeter point
;TYPE:Perimeter
G1 F1020
G1 X60.399 Y59.21 E4.54126 ; perimeter
G1 X58.281 Y59.049 E4.73831 ; perimeter
G1 X58.281 Y58.133 E4.82325 ; perimeter
G1 X60.675 Y57.949 E5.04594 ; perimeter
G1 X61.272 Y57.875 E5.10175 ; perimeter
G1 X61.232 Y57.942 E5.109 ; perimeter
G1 X61.118 Y58.388 E5.15173 ; perimeter
G1 X61.095 Y58.718 E5.18238 ; perimeter
G1 X61.147 Y59.101 E5.21823 ; perimeter
G1 X61.198 Y59.25 E5.23281 ; perimeter
G1 X61.711 Y60.014 F6000 ; move to first perimeter point
;TYPE:External perimeter
G1 F1020
G1 X60.81 Y59.876 E5.31738 ; perimeter
G1 X57.656 Y59.628 E5.61076 ; perimeter
G1 X57.656 Y57.555 E5.80307 ; perimeter
G1 X60.615 Y57.327 E6.07829 ; perimeter
G1 X61.123 Y57.267 E6.12577 ; perimeter
G1 X62.08 Y57.069 E6.21639 ; perimeter
G1 X63.243 Y56.995 E6.32451 ; perimeter
G1 X63.446 Y57.019 E6.34345 ; perimeter
G1 X63.642 Y57.068 E6.3622 ; perimeter
G1 X63.896 Y57.174 E6.38772 ; perimeter
G1 X64.075 Y57.283 E6.40714 ; perimeter
G1 X64.233 Y57.409 E6.42587 ; perimeter
G1 X64.424 Y57.617 E6.45203 ; perimeter
G1 X64.535 Y57.781 E6.47045 ; perimeter
G1 X64.654 Y58.034 E6.49636 ; perimeter
G1 X64.954 Y59.087 E6.59797 ; perimeter
G1 X65.094 Y60.058 E6.68895 ; perimeter
G1 X65.211 Y60.558 E6.73655 ; perimeter
G1 X67.065 Y67.242 E7.37989 ; perimeter
G1 X66.342 Y67.541 E7.45248 ; perimeter
G1 X65.592 Y67.766 E7.52511 ; perimeter
G1 X62.906 Y61.666 E8.14335 ; perimeter
G1 X62.758 Y61.442 E8.16827 ; perimeter
G1 X62.697 Y61.437 E8.17396 ; perimeter
G1 X62.523 Y61.308 E8.19402 ; perimeter
G1 X62.329 Y61.226 E8.21361 ; perimeter
G1 X61.848 Y61.202 E8.25822 ; perimeter
G1 X61.811 Y61.359 E8.27321 ; perimeter
G1 X61.556 Y61.535 E8.30191 ; perimeter
G1 X61.556 Y60.926 E8.35836 ; perimeter
G1 X61.701 Y60.073 E8.43858 ; perimeter
G1 X61.765 Y59.618 F6000 ; move inwards before travel
G1 X60.79 Y58.593 ; move to first infill point
;TYPE:Gap fill
;WIDTH:0.69921
G1 F1020
G1 X60.454 Y58.59 E8.4697 ; infill
;WIDTH:0.695274
G1 X60.449 Y58.59 E8.47018 ; infill
;WIDTH:0.69444
G1 X60.14 Y58.59 E8.49861 ; infill
;WIDTH:0.651831
G1 X59.831 Y58.59 E8.52509 ; infill
;WIDTH:0.609222
G1 X59.521 Y58.591 E8.54961 ; infill
;WIDTH:0.566613
G1 X59.212 Y58.591 E8.57217 ; infill
;WIDTH:0.524004
G1 X58.903 Y58.591 E8.59278 ; infill
;WIDTH:0.481395
G1 X58.593 Y58.591 E8.61143 ; infill
G1 E6.61143 F4800 ; retract
G92 E0 ; reset extrusion distance
G1 X58.094 Y58.591 F6000 ; move to first infill point
G1 X63.94 Y57.101 ; move to first infill point
G1 X64.922 Y58.992 ; move to first infill point
G1 X64.931 Y59.278 ; move to first infill point
G1 X64.638 Y59.287 ; move to first infill point
G1 E2 F4800 ;  ; unretract
;WIDTH:0.185263
G1 F1020
G1 X64.578 Y59.659 E2.00615 ; infill
G1 X64.446 Y59.713 F6000 ; move to first infill point
;WIDTH:0.185228
G1 F1020
G1 X64.542 Y59.618 E2.00836 ; infill
;WIDTH:0.193978
G1 X64.69 Y59.443 E2.0124 ; infill
G1 E.0124 F4800 ; retract
G92 E0 ; reset extrusion distance
G1 X64.242 Y61.654 F6000 ; move to first infill point
G1 E2 F4800 ;  ; unretract
;WIDTH:0.616013
G1 F1020
G1 X64.359 Y61.983 E2.02797 ; infill
;WIDTH:0.570322
G1 X64.476 Y62.311 E2.05357 ; infill
;WIDTH:0.524632
G1 X64.593 Y62.639 E2.07681 ; infill
;WIDTH:0.478942
G1 X64.71 Y62.967 E2.09769 ; infill
;WIDTH:0.433251
G1 X64.827 Y63.295 E2.11621 ; infill
;WIDTH:0.387561
G1 X64.944 Y63.623 E2.13236 ; infill
;WIDTH:0.341871
G1 X65.061 Y63.951 E2.14615 ; infill
;WIDTH:0.29618
G1 X65.178 Y64.279 E2.15758 ; infill
;WIDTH:0.25049
G1 X65.295 Y64.607 E2.16665 ; infill
;WIDTH:0.2048
G1 X65.412 Y64.935 E2.17336 ; infill
;LAYER_CHANGE
;Z:0.65
;HEIGHT:0.3
G1 Z.65 F6000 ; move to next layer (1)
G1 X60.853 Y58.197 ; move to first perimeter point
;TYPE:Perimeter
;WIDTH:0.45
G1 F900
G1 X60.818 Y58.607 E2.19355 ; perimeter
G1 X60.859 Y58.987 E2.21232 ; perimeter
G1 X58.538 Y58.811 E2.32653 ; perimeter
G1 X58.538 Y58.372 E2.34802 ; perimeter
G1 X60.794 Y58.201 E2.459 ; perimeter
G1 X61.394 Y59.414 F6000 ; move to first perimeter point
G1 F900
G1 X58.152 Y59.168 E2.6185 ; perimeter
G1 X58.152 Y58.015 E2.67507 ; perimeter
G1 X61.394 Y57.769 E2.83457 ; perimeter
G1 X61.35 Y57.852 E2.83918 ; perimeter
G1 X61.237 Y58.242 E2.85911 ; perimeter
G1 X61.205 Y58.602 E2.87687 ; perimeter
G1 X61.249 Y59.003 E2.89664 ; perimeter
G1 X61.365 Y59.362 E2.91513 ; perimeter
G1 X63.475 Y60.9 F6000 ; move to first perimeter point
G1 F900
G1 X63.595 Y60.888 E2.92104 ; perimeter
G1 X64.04 Y60.756 E2.94382 ; perimeter
G1 X64.309 Y60.616 E2.95868 ; perimeter
G1 X65.845 Y66.145 E3.24016 ; perimeter
G1 X63.681 Y61.206 E3.50467 ; perimeter
G1 X63.508 Y60.949 E3.51986 ; perimeter
G1 X62.202 Y60.282 F6000 ; move to first perimeter point
G1 F900
G1 X62.399 Y60.39 E3.53089 ; perimeter
G1 X62.744 Y60.499 E3.54864 ; perimeter
G1 X63.148 Y60.543 E3.56857 ; perimeter
G1 X63.521 Y60.508 E3.58694 ; perimeter
G1 X63.895 Y60.397 E3.60605 ; perimeter
G1 X64.214 Y60.231 E3.62369 ; perimeter
G1 X64.531 Y59.976 E3.64365 ; perimeter
G1 X66.472 Y66.961 E3.99929 ; perimeter
G1 X65.872 Y67.167 E4.03042 ; perimeter
G1 X63.342 Y61.393 E4.3397 ; perimeter
G1 X63.153 Y61.112 E4.35628 ; perimeter
G1 X62.841 Y60.851 E4.37624 ; perimeter
G1 X62.462 Y60.691 E4.39644 ; perimeter
G1 X62.202 Y60.66 E4.40927 ; perimeter
G1 X62.202 Y60.342 E4.42487 ; perimeter
G1 X61.731 Y60.281 F6000 ; move to first perimeter point
G1 X61.785 Y59.863 ; move to first perimeter point
G1 X61.301 Y57.357 ; move to first perimeter point
G1 X61.589 Y57.335 ; move to first perimeter point
G1 X61.873 Y57.254 ; move to first perimeter point
G1 X62.204 Y57.155 ; move to first perimeter point
G1 X62.253 Y57.317 ; move to first perimeter point
G1 F900
G1 X62.047 Y57.49 E4.43806 ; perimeter
G1 X61.849 Y57.734 E4.45351 ; perimeter
G1 X61.71 Y57.997 E4.46811 ; perimeter
G1 X61.617 Y58.313 E4.48425 ; perimeter
G1 X61.593 Y58.598 E4.49828 ; perimeter
G1 X61.628 Y58.923 E4.51433 ; perimeter
G1 X61.714 Y59.195 E4.52828 ; perimeter
G1 X61.864 Y59.471 E4.54373 ; perimeter
G1 X62.049 Y59.695 E4.558 ; perimeter
G1 X62.265 Y59.876 E4.57179 ; perimeter
G1 X62.552 Y60.034 E4.58784 ; perimeter
G1 X62.824 Y60.119 E4.60186 ; perimeter
G1 X63.151 Y60.155 E4.61801 ; perimeter
G1 X63.448 Y60.127 E4.63261 ; perimeter
G1 X63.749 Y60.038 E4.64805 ; perimeter
G1 X64.002 Y59.907 E4.66201 ; perimeter
G1 X64.262 Y59.698 E4.67839 ; perimeter
G1 X64.471 Y59.437 E4.69477 ; perimeter
G1 X64.603 Y59.184 E4.70879 ; perimeter
G1 X64.658 Y58.995 E4.71845 ; perimeter
G1 X66.933 Y67.179 E5.13518 ; perimeter
G1 X66.311 Y67.435 E5.16817 ; perimeter
G1 X65.657 Y67.637 E5.20176 ; perimeter
G1 X63.002 Y61.579 E5.52623 ; perimeter
G1 X62.863 Y61.373 E5.53844 ; perimeter
G1 X62.638 Y61.183 E5.55289 ; perimeter
G1 X62.362 Y61.067 E5.56756 ; perimeter
G1 X62.074 Y61.033 E5.5818 ; perimeter
G1 X61.817 Y61.087 E5.59471 ; perimeter
G1 X61.817 Y59.833 E5.65621 ; perimeter
G1 X57.767 Y59.526 E5.85547 ; perimeter
G1 X57.767 Y57.658 E5.94711 ; perimeter
G1 X62.193 Y57.321 E6.16488 ; perimeter
G1 X62.157 Y57.975 F6000 ; move to first perimeter point
;TYPE:External perimeter
G1 F900
G1 X62.323 Y57.761 E6.17816 ; perimeter
G1 X62.484 Y57.627 E6.18843 ; perimeter
G1 X62.704 Y57.506 E6.20075 ; perimeter
G1 X62.903 Y57.443 E6.21102 ; perimeter
G1 X63.142 Y57.416 E6.2228 ; perimeter
G1 X63.362 Y57.434 E6.23363 ; perimeter
G1 X63.604 Y57.504 E6.24599 ; perimeter
G1 X63.79 Y57.601 E6.25629 ; perimeter
G1 X63.986 Y57.758 E6.26861 ; perimeter
G1 X64.121 Y57.919 E6.27891 ; perimeter
G1 X64.243 Y58.141 E6.29135 ; perimeter
G1 X64.314 Y58.385 E6.30379 ; perimeter
G1 X64.332 Y58.592 E6.31397 ; perimeter
G1 X64.314 Y58.798 E6.32415 ; perimeter
G1 X64.244 Y59.039 E6.33647 ; perimeter
G1 X64.147 Y59.226 E6.34677 ; perimeter
G1 X63.988 Y59.423 E6.35921 ; perimeter
G1 X63.79 Y59.582 E6.37166 ; perimeter
G1 X63.604 Y59.679 E6.38193 ; perimeter
G1 X63.374 Y59.747 E6.39371 ; perimeter
G1 X63.154 Y59.768 E6.40454 ; perimeter
G1 X62.904 Y59.74 E6.41689 ; perimeter
G1 X62.704 Y59.677 E6.42719 ; perimeter
G1 X62.484 Y59.556 E6.43952 ; perimeter
G1 X62.324 Y59.423 E6.44973 ; perimeter
G1 X62.185 Y59.254 E6.46044 ; perimeter
G1 X62.07 Y59.043 E6.47222 ; perimeter
G1 X62.007 Y58.844 E6.48249 ; perimeter
G1 X61.98 Y58.594 E6.49481 ; perimeter
G1 X61.998 Y58.385 E6.50511 ; perimeter
G1 X62.069 Y58.143 E6.51747 ; perimeter
G1 X62.129 Y58.028 E6.52383 ; perimeter
G1 X62.031 Y57.736 F6000 ; move inwards before travel
G1 X61.431 Y60.191 ; move to first perimeter point
G1 F1500
G1 X57.381 Y59.883 E6.72309 ; perimeter
G1 X57.381 Y57.3 E6.8498 ; perimeter
G1 X63.228 Y56.869 E7.13742 ; perimeter
G1 X63.469 Y56.896 E7.14933 ; perimeter
G1 X63.684 Y56.95 E7.16019 ; perimeter
G1 X63.888 Y57.03 E7.17098 ; perimeter
G1 X64.149 Y57.181 E7.18574 ; perimeter
G1 X64.32 Y57.319 E7.19652 ; perimeter
G1 X64.474 Y57.479 E7.20743 ; perimeter
G1 X64.605 Y57.656 E7.21821 ; perimeter
G1 X64.745 Y57.922 E7.23297 ; perimeter
G1 X64.82 Y58.137 E7.24411 ; perimeter
G1 X67.393 Y67.394 E7.71547 ; perimeter
G1 X66.814 Y67.656 E7.74665 ; perimeter
G1 X66.437 Y67.799 E7.76645 ; perimeter
G1 X65.436 Y68.095 E7.81761 ; perimeter
G1 X62.663 Y61.766 E8.1566 ; perimeter
G1 X62.574 Y61.633 E8.16444 ; perimeter
G1 X62.434 Y61.516 E8.17338 ; perimeter
G1 X62.263 Y61.443 E8.18252 ; perimeter
G1 X62.091 Y61.423 E8.19098 ; perimeter
G1 X61.86 Y61.472 E8.20257 ; perimeter
G1 X61.661 Y61.607 E8.21441 ; perimeter
G1 X61.534 Y61.789 E8.22528 ; perimeter
G1 X61.481 Y62.007 E8.23626 ; perimeter
G1 X61.481 Y68.134 E8.53684 ; perimeter
G1 X61.431 Y68.134 E8.53929 ; perimeter
G1 X61.431 Y60.251 E8.92602 ; perimeter
G1 X61.45 Y59.791 F6000 ; move inwards before travel
G1 X60.626 Y58.776 ; move to first infill point
;TYPE:Gap fill
;WIDTH:0.373274
G1 F1200
G1 X60.541 Y58.685 E8.9309 ; infill
;WIDTH:0.401046
G1 X60.456 Y58.594 E8.93622 ; infill
;WIDTH:0.405859
G1 X60.454 Y58.592 E8.93637 ; infill
;WIDTH:0.40586
G1 X60.167 Y58.592 E8.94885 ; infill
;WIDTH:0.363465
G1 X59.88 Y58.592 E8.95978 ; infill
;WIDTH:0.32107
G1 X59.592 Y58.592 E8.96916 ; infill
;WIDTH:0.278675
G1 X59.305 Y58.592 E8.97699 ; infill
;WIDTH:0.23628
G1 X59.018 Y58.592 E8.98327 ; infill
;WIDTH:0.193885
G1 X58.731 Y58.592 E8.988 ; infill
G1 X62.438 Y57.26 F6000 ; move to first infill point
;WIDTH:0.312438
G1 F1200
G1 X62.569 Y57.221 E8.99232 ; infill
;WIDTH:0.307252
G1 X62.592 Y57.216 E8.99305 ; infill
;WIDTH:0.299485
G1 X62.714 Y57.192 E8.99677 ; infill
;WIDTH:0.271009
G1 X62.836 Y57.169 E9.00004 ; infill
;WIDTH:0.242535
G1 X62.853 Y57.166 E9.00042 ; infill
;WIDTH:0.240258
G1 X63.031 Y57.149 E9.00442 ; infill
;WIDTH:0.233482
G1 X63.13 Y57.143 E9.00655 ; infill
;WIDTH:0.223765
G1 X63.145 Y57.143 E9.00686 ; infill
;WIDTH:0.230421
G1 X63.215 Y57.145 E9.00833 ; infill
;WIDTH:0.230422
G1 X63.404 Y57.163 E9.01234 ; infill
;WIDTH:0.225858
G1 X63.42 Y57.165 E9.01267 ; infill
;WIDTH:0.225966
G1 X63.42 Y57.166 E9.01269 ; infill
;WIDTH:0.232817
G1 X63.599 Y57.214 E9.01665 ; infill
;WIDTH:0.232817
G1 X63.698 Y57.248 E9.0189 ; infill
;WIDTH:0.223269
G1 X63.713 Y57.254 E9.01921 ; infill
;WIDTH:0.229619
G1 X63.768 Y57.279 E9.02049 ; infill
;WIDTH:0.22962
G1 X63.932 Y57.369 E9.02443 ; infill
;WIDTH:0.221805
G1 X63.945 Y57.377 E9.02474 ; infill
;WIDTH:0.230369
G1 X63.992 Y57.41 E9.02594 ; infill
;WIDTH:0.230368
G1 X64.134 Y57.523 E9.02977 ; infill
;WIDTH:0.230345
G1 X64.171 Y57.558 E9.03085 ; infill
;WIDTH:0.223742
G1 X64.182 Y57.569 E9.03117 ; infill
;WIDTH:0.231325
G1 X64.262 Y57.658 E9.03371 ; infill
;WIDTH:0.231326
G1 X64.342 Y57.758 E9.03643 ; infill
;WIDTH:0.224002
G1 X64.351 Y57.771 E9.03675 ; infill
;WIDTH:0.229074
G1 X64.371 Y57.803 E9.03754 ; infill
;WIDTH:0.229075
G1 X64.493 Y58.029 E9.04291 ; infill
;WIDTH:0.225057
G1 X64.494 Y58.032 E9.04298 ; infill
;WIDTH:0.225058
G1 X64.499 Y58.045 E9.04326 ; infill
;WIDTH:0.234089
G1 X64.555 Y58.22 E9.04723 ; infill
;WIDTH:0.23409
G1 X64.585 Y58.326 E9.04961 ; infill
;WIDTH:0.234131
G1 X64.589 Y58.342 E9.04997 ; infill
;WIDTH:0.278981
G1 X64.632 Y58.582 E9.05664 ; infill
;WIDTH:0.284155
G1 X64.635 Y58.601 E9.05717 ; infill
;WIDTH:0.311698
G1 X64.653 Y58.802 E9.06351 ; infill
G1 X63.045 Y60.745 F6000 ; move to first infill point
;WIDTH:0.143239
G1 F1200
G1 X63.109 Y60.772 E9.06421 ; infill
;WIDTH:0.143237
G1 X63.187 Y60.858 E9.06538 ; infill
G1 X64.002 Y60.969 F6000 ; move to first infill point
;WIDTH:0.431722
G1 F1200
G1 X64.118 Y61.294 E9.08154 ; infill
;WIDTH:0.386959
